ix/flash-circle-1_bulk.svg

<svg viewBox="0 0 24 24" fill="none" xmlns="http://www.w3.org/2000/svg" height="1em" width="1em">
  <path opacity="0.4" d="M12 22C17.5228 22 22 17.5228 22 12C22 6.47715 17.5228 2 12 2C6.47715 2 2 6.47715 2 12C2 17.5228 6.47715 22 12 22Z" fill="#292D32"/>
  <path d="M8.67938 11.9098L10.3294 12.3198L9.37939 16.1598C9.15939 17.0598 9.59937 17.3599 10.3594 16.8299L15.5394 13.2398C16.1694 12.7998 16.0794 12.2898 15.3294 12.0998L13.6794 11.6898L14.6294 7.84981C14.8494 6.94981 14.4094 6.64983 13.6494 7.17983L8.46939 10.7699C7.83939 11.2099 7.92938 11.7198 8.67938 11.9098Z" fill="#292D32"/>
</svg>

<svg viewBox="0 0 24 24" fill="none" xmlns="http://www.w3.org/2000/svg" height="1em" width="1em">
  <path opacity=".4" d="M12 22c5.523 0 10-4.477 10-10S17.523 2 12 2 2 6.477 2 12s4.477 10 10 10Z" fill="#292D32"/>
  <path d="m8.68 11.91 1.65.41-.95 3.84c-.22.9.22 1.2.98.67l5.18-3.59c.63-.44.54-.95-.21-1.14l-1.65-.41.95-3.84c.22-.9-.22-1.2-.98-.67l-5.18 3.59c-.63.44-.54.95.21 1.14Z" fill="#292D32"/>
</svg>
